X:1
T:Good News
T:John Robson Sweney
T:Good News
T:Public Domain
T:Public Domain
C:John Robson Sweney
Z:Public Domain
%%score ( 1 2 ) ( 3 4 )
L:1/8
M:6/8
K:C
V:1 treble 
V:2 treble 
V:3 bass 
V:4 bass 
V:1
 [EG] | [Ec]2 [EG] [Ec]2 [Ec]/[Ec]/ | ([Ac][GB])[FA] [EG]2 [EG] | ([DF][^CE])[DF] [GB]2 [FA] | %4
w: 1.~Good|news! good news of a|soul * re- deemed, A|pen- * i- tent for-|
w: 2.~Good|news! good news that a-|no- * ther heart Has|learned * re- dempt- ion’s|
w: 3.~Good|news! good news that a-|no- * ther life Will|show * the power of|
w: 4.~Good|news! good news that a-|no- * ther hand Will|pre- * cious seed be|
 [FA]3 [EG]2 [EG] | [Ec]2 [EG] [Ec]2 [Ec]/[Ec]/ | (dc)[FA] [EG]2 [Ec] | [Ge]2 [Ec] (GA)[FB] | %8
w: giv- en! Good|news! good news that a-|no- * ther friend Is|the way to * Heav-|
w: stor- y; Good|news! good news that a-|no- * ther voice Will|His praise in * glor-|
w: Je- sus, Will|prove the might of the|sav- * ing grace Which|ly, hour- ly * frees|
w: sow- ing, A-|no- ther guide to lead|stray- * ing feet Where|ing streams are * flow-|
 [Fd]3 [Ec]2 ||"^Refrain" [Ec] | [Fd]2 [F^c] [Fd]2 [Ge] | [Ec]2 [FA] [EG]2 [Ec]/[Fd]/ | %12
w: ||||
w: ||||
w: ||||
w: ||||
 [Ge]2 [Ec] [EG]2 [Gc] | [Gc] [GB]4 [FG] | [Ec]2 [Ec] [Fd][Fc][FA] | [EG]2 [CE] [EG]2 [Ec] | %16
w: ||||
w: ||||
w: ||||
w: ||||
 [Ge]2 [Ec] (GA)[FB] | [Fd]3 [Ec]2 |] %18
w: ||
w: ||
w: ||
w: ||
V:2
 x | x6 | x6 | x6 | x6 | x6 | F2 x4 | x3 F2 x | x5 || x | x6 | x6 | x6 | x6 | x6 | x6 | x3 F2 x | %17
w: ||||||on|en!||||||||||
w: ||||||sing|y.||||||||||
w: ||||||dai-|us.||||||||||
w: ||||||liv-|ing.||||||||||
 x5 |] %18
w: |
w: |
w: |
w: |
V:3
 [C,C] | [C,G,]2 [C,C] [C,G,]2 [C,G,]/[C,C]/ | [F,C]2 [F,C] [C,C]2 [C,C] | %3
w: ~|~ ~ ~ ~ ~|~ ~ ~ ~|
 [G,B,]2 [G,B,] [G,D]2 [G,B,] | [C,C]3 [C,C]2 [C,C] | [C,G,]2 [C,C] [C,G,]2 [C,G,]/[C,G,]/ | %6
w: ~ ~ ~ ~|~ ~ ~|~ ~ ~ ~ ~|
 [F,A,]2 [F,C] [C,C]2 [C,C] | [C,C]2 [C,G,] (B,C)[G,D] | [G,B,]3 [C,C]2 || [C,G,] | %10
w: ~ ~ ~ ~|~ ~ ~ * ~|~ Re-|joice!|
 [G,B,]2 [G,^A,] [G,B,]2 [G,B,] | [C,C]2 [C,C] [C,C]2 [C,G,]/[C,G,]/ | [C,C]2 [C,G,] [C,C]2 [C,E] | %13
w: re- joice! there’s joy|to- day In the land|be- yond the riv-|
 [G,E] [G,D]4 [G,B,] | [C,C]2 [C,G,] [F,A,][F,A,][F,C] | [C,C]2 [C,G,] [C,C]2 [C,C] | %16
w: er; A- no-|ther gem for His di-|a- dem, A star|
 [C,C]2 [C,G,] (B,C)[G,D] | [G,B,]3 [C,C]2 |] %18
w: to shine for- * ev-||
V:4
 x | x6 | x6 | x6 | x6 | x6 | x6 | x3 G,2 x | x5 || x | x6 | x6 | x6 | x6 | x6 | x6 | x3 G,2 x | %17
w: |||||||~|||||||||er.|
 x5 |] %18
w: |

